dist/assets/images/social/vk.svg

<svg width="48" height="28" viewBox="0 0 48 28" fill="none" xmlns="http://www.w3.org/2000/svg">
<path d="M39.8314 16.056C39.0554 15.076 39.2774 14.64 39.8314 13.764C39.8414 13.754 46.2476 4.902 46.9076 1.9L46.9116 1.898C47.2396 0.804 46.9116 0 45.3256 0H40.0774C38.7413 0 38.1253 0.69 37.7953 1.462C37.7953 1.462 35.1232 7.858 31.3431 12.004C30.123 13.202 29.559 13.586 28.893 13.586C28.565 13.586 28.055 13.202 28.055 12.108V1.898C28.055 0.586 27.681 0 26.5749 0H18.3226C17.4846 0 16.9866 0.612 16.9866 1.182C16.9866 2.426 18.8767 2.712 19.0727 6.212V13.806C19.0727 15.47 18.7707 15.776 18.1006 15.776C16.3166 15.776 11.9864 9.354 9.42033 2.004C8.90231 0.578 8.39629 0.00199986 7.05024 0.00199986H1.80006C0.30201 0.00199986 0 0.692 0 1.464C0 2.828 1.78406 9.61 8.29629 18.57C12.6364 24.686 18.7487 28 24.3088 28C27.651 28 28.059 27.264 28.059 25.998C28.059 20.154 27.757 19.602 29.431 19.602C30.207 19.602 31.5431 19.986 34.6632 22.936C38.2293 26.434 38.8153 28 40.8114 28H46.0596C47.5556 28 48.3137 27.264 47.8777 25.812C46.8796 22.758 40.1354 16.476 39.8314 16.056Z" fill="#363636"/>
</svg>

<svg width="48" height="28" fill="none" xmlns="http://www.w3.org/2000/svg"><path d="M39.831 16.056c-.776-.98-.554-1.416 0-2.292.01-.01 6.417-8.862 7.077-11.864l.004-.002C47.24.804 46.912 0 45.326 0h-5.249c-1.336 0-1.952.69-2.282 1.462 0 0-2.672 6.396-6.452 10.542-1.22 1.198-1.784 1.582-2.45 1.582-.328 0-.838-.384-.838-1.478V1.898C28.055.586 27.681 0 26.575 0h-8.252c-.838 0-1.336.612-1.336 1.182 0 1.244 1.89 1.53 2.086 5.03v7.594c0 1.664-.302 1.97-.972 1.97-1.784 0-6.115-6.422-8.68-13.772C8.901.578 8.395.002 7.05.002H1.8C.301.002 0 .692 0 1.464 0 2.828 1.784 9.61 8.296 18.57 12.636 24.686 18.75 28 24.31 28c3.342 0 3.75-.736 3.75-2.002 0-5.844-.302-6.396 1.372-6.396.776 0 2.112.384 5.232 3.334C38.23 26.434 38.815 28 40.811 28h5.249c1.496 0 2.254-.736 1.818-2.188-.998-3.054-7.743-9.336-8.047-9.756z" fill="#363636"/></svg>
